X: 41605
T: Up Downey
R: reel
M: 4/4
K: Eminor
|EFGA B2eB|BAGB AGFD|EFGA B2ef|gfed fa (3aaa|
EFGA B2eB|BAGB AGFD|EFGA B2ef|1 gfed e4:|2 gfed e3f||
gfeg fegf|egfe a2 (3aaa|gfeg fegf|egfd B2 (3BBB|
gfeg fegf|egfe a2 (3aaa|bagb agfd|1 (3efg fd e3f:|2 (3efg fd e4||

